X:476
T: Es stehen drei Sterne am Himmel (5-72), S. 117
N: P0756
O: Lothringen
S: MERKELBACH-PINCK, Angelika: Verklingende Weisen, Bd 5, Kassel 1962]
R: Liebe]
M: 3/4
L: 1/8
K: A
E2 | A2E2A2 | A2E2A2 | B3AB2 | F4
G2 | A2G2F2 | E4EE | C2E2c2- | c4
c2 | B2A2E2 | F2E2FF | E4

